X:384
T:
R:polska
S:Ur von Baumgartens samling, Visby.
O:Gotland, Visby
M:3/4
L:1/16
K:Gm
A2|Bcdc cBAB G^FGA|d2de cecA B2A2|Bcdc cBAB G^FGA|BAG^F F2G2 G2::A2|
BAG^F GABc dfdB|gaba g2ga bag^f|^fgaf d4 B2f2|dcBA G2e2 cBAB|
d2de c2cd BABd|BAG^F F2G2 G2:|

